X:110
T:Bonny Breast Knot (Sussex)
C:Traditional English
B:http://www.contrafusion.co.uk/Dances/EFDS5607-BonnyBreastKnot.html
R:Reel
M:2/2
L:1/8
S:Colin Hume's website,  colinhume.com  - chords can also be printed below the stave.
Q:1/2=110
%%MIDI ratio 3 1
%%MIDI program 58       % Tuba
%%MIDI bassprog 67      % Baritone Sax
%%MIDI chordprog 66     % Tenor Sax
K:C
P:A
|: c2 | "C"e2c2 c2de | "Dm"fedc "G7"B2G2 | "C"c2e2 c2e2 | "C"c2g2 "G7"g3f |\
"C"e2c2 c2de | "Dm"fedc "G7"B2G2 | "C"c2e2 "G7"d2gf | "C"e2c2 c2 :|
P:B
|: z2 | "C"g2g>g "G7"g2g2 | "C"gfed c4 | "Dm"d2e2 fefg | "G7"a2d2 d4 |\
"C"g2g>g "G7"g2g2 | "C"gfed c4 | "Dm"d4 "G7"G3B | "C"c2e2 c2 :|

